assets/icons/arrows-out.svg

<svg xmlns="http://www.w3.org/2000/svg" viewBox="0 0 48 48" role="presentation" aria-hidden="true"><path d="M40.5 9V18C40.5 18.3978 40.342 18.7794 40.0607 19.0607C39.7794 19.342 39.3978 19.5 39 19.5C38.6022 19.5 38.2206 19.342 37.9393 19.0607C37.658 18.7794 37.5 18.3978 37.5 18V12.6206L28.0613 22.0613C27.7798 22.3427 27.398 22.5008 27 22.5008C26.602 22.5008 26.2202 22.3427 25.9387 22.0613C25.6573 21.7798 25.4992 21.398 25.4992 21C25.4992 20.602 25.6573 20.2202 25.9387 19.9387L35.3794 10.5H30C29.6022 10.5 29.2206 10.342 28.9393 10.0607C28.658 9.77936 28.5 9.39782 28.5 9C28.5 8.60218 28.658 8.22064 28.9393 7.93934C29.2206 7.65804 29.6022 7.5 30 7.5H39C39.3978 7.5 39.7794 7.65804 40.0607 7.93934C40.342 8.22064 40.5 8.60218 40.5 9ZM19.9387 25.9387L10.5 35.3794V30C10.5 29.6022 10.342 29.2206 10.0607 28.9393C9.77936 28.658 9.39782 28.5 9 28.5C8.60218 28.5 8.22064 28.658 7.93934 28.9393C7.65804 29.2206 7.5 29.6022 7.5 30V39C7.5 39.3978 7.65804 39.7794 7.93934 40.0607C8.22064 40.342 8.60218 40.5 9 40.5H18C18.3978 40.5 18.7794 40.342 19.0607 40.0607C19.342 39.7794 19.5 39.3978 19.5 39C19.5 38.6022 19.342 38.2206 19.0607 37.9393C18.7794 37.658 18.3978 37.5 18 37.5H12.6206L22.0613 28.0613C22.3427 27.7798 22.5008 27.398 22.5008 27C22.5008 26.602 22.3427 26.2202 22.0613 25.9387C21.7798 25.6573 21.398 25.4992 21 25.4992C20.602 25.4992 20.2202 25.6573 19.9387 25.9387Z" fill="currentColor"/></svg>

<svg xmlns="http://www.w3.org/2000/svg" aria-hidden="true" viewBox="0 0 48 48"><path fill="currentColor" d="M40.5 9v9a1.5 1.5 0 1 1-3 0v-5.38l-9.439 9.441a1.501 1.501 0 0 1-2.122-2.122l9.44-9.439H30a1.5 1.5 0 1 1 0-3h9A1.5 1.5 0 0 1 40.5 9M19.939 25.939l-9.439 9.44V30a1.5 1.5 0 1 0-3 0v9A1.5 1.5 0 0 0 9 40.5h9a1.5 1.5 0 1 0 0-3h-5.38l9.441-9.439a1.501 1.501 0 0 0-2.122-2.122"/></svg>
